static/images/pieces/xiangqi/wikim/red_chariot.svg

<?xml version="1.0" encoding="UTF-8" standalone="no"?>
<svg
   width="100"
   height="100"
   version="1.1"
   id="svg1189"
   sodipodi:docname="red_chariot.svg"
   viewBox="-6 -6 112 112"
   inkscape:version="1.2.2 (b0a8486541, 2022-12-01)"
   xmlns:inkscape="http://www.inkscape.org/namespaces/inkscape"
   xmlns:sodipodi="http://sodipodi.sourceforge.net/DTD/sodipodi-0.dtd"
   xmlns="http://www.w3.org/2000/svg"
   xmlns:svg="http://www.w3.org/2000/svg"
   xmlns:rdf="http://www.w3.org/1999/02/22-rdf-syntax-ns#"
   xmlns:cc="http://creativecommons.org/ns#"
   xmlns:dc="http://purl.org/dc/elements/1.1/">
  <defs
     id="defs1193" />
  <sodipodi:namedview
     id="namedview1191"
     pagecolor="#ffffff"
     bordercolor="#666666"
     borderopacity="1.0"
     inkscape:showpageshadow="2"
     inkscape:pageopacity="0.0"
     inkscape:pagecheckerboard="0"
     inkscape:deskcolor="#d1d1d1"
     showgrid="false"
     inkscape:zoom="2.36"
     inkscape:cx="50.211864"
     inkscape:cy="50"
     inkscape:window-width="1920"
     inkscape:window-height="1022"
     inkscape:window-x="0"
     inkscape:window-y="0"
     inkscape:window-maximized="1"
     inkscape:current-layer="svg1189" />
  <title
     id="title1181">俥</title>
  <!-- 此字型為全字庫正楷體，中華民國國家發展委員會，CNS11643中文標準交換碼全字庫網站，https://www.cns11643.gov.tw/。 -->
  <circle
     r="48.5"
     cx="50"
     cy="50"
     stroke-width="3"
     stroke="#000000"
     fill="#ffddaa"
     id="circle1183" />
  <circle
     r="43.5"
     cx="50"
     cy="50"
     stroke-width="3"
     stroke="#cc0000"
     fill="none"
     id="circle1185" />
  <path
     transform="translate(15,14)"
     fill="#cc0000"
     d="m 39.1,3.7 c -1.2,0.7 -1.2,1.8 -0.1,2.9 1.3,1.2 1.6,2.5 1.5,5.3 l -0.1,2.6 -1.2,0.3 c -0.7,0.1 -3.2,0.3 -5.5,0.5 -4.8,0.2 -5.5,0.5 -4.5,2.1 1,1.4 3.1,2.2 6.1,2.2 1.5,0 3.3,-0.2 4,-0.3 L 40.6,19 v 1.7 c 0,1.5 -0.1,1.7 -1,1.8 -2.6,0.6 -6.2,0.9 -9.4,0.9 -4.7,0.1 -4.8,0.2 -2.9,4.8 0.7,1.9 1.6,4.7 1.9,6.1 0.4,1.4 0.8,3.2 1,4 0.6,2.4 3.2,4.3 4,2.9 0.3,-0.5 3.6,-1.3 5.4,-1.3 1,0 1,0 1,2.2 v 2.3 l -1.1,0.2 C 38.8,44.7 35,45 31,45.4 c -4.2,0.3 -7.5,0.8 -7.8,1 -0.6,0.4 -0.6,0.5 0,1.4 0.7,1.2 3.1,2.6 4.6,2.6 0.6,0 2.4,-0.2 4,-0.5 1.7,-0.3 4.3,-0.7 5.9,-0.8 l 2.8,-0.2 0.1,6 c 0,3.3 0.2,6.7 0.4,7.7 0.6,2.8 2.1,3.7 3.4,2 0.9,-1.1 1.1,-3.1 1.4,-10.3 L 46,48.5 h 9.9 c 8.4,0 10,-0.1 10.3,-0.6 0.9,-1.5 -0.2,-3 -3.7,-4.8 l -1.8,-0.9 -5.9,0.6 c -3.3,0.3 -6.7,0.6 -7.5,0.6 h -1.5 l 0.1,-2 0.1,-2 3,-0.1 c 2.8,-0.1 3.1,-0.1 3.8,0.8 1.2,1.2 2.9,1.2 3.8,-0.1 0.9,-1.2 1.2,-2.4 2.3,-7.3 0.5,-2.8 1,-4.2 1.8,-5.4 0.6,-0.9 1.2,-1.9 1.4,-2.3 0.3,-0.8 -1.9,-2.8 -4.6,-4.1 l -2.2,-1 -2.4,0.6 c -1.3,0.3 -3.4,0.6 -4.6,0.6 L 46,21.2 45.9,19.9 c -0.1,-1.6 0.2,-1.8 4.7,-2.4 1.7,-0.2 3.9,-0.5 4.8,-0.7 3,-0.7 3.6,-2.7 1.2,-4 -2,-1 -4.2,-1.1 -7.3,-0.3 -1.4,0.4 -2.7,0.6 -2.9,0.5 -0.3,-0.2 0.1,-2.6 0.7,-4.1 C 47.4,8.2 47.6,7.5 47.6,7.2 47.6,6.4 45.6,4.8 43.5,4 41.1,3 40.4,3 39.1,3.7 M 20.7,7.2 c -0.4,0.4 -0.4,0.8 0,2.2 0.4,1.7 0.4,1.9 -0.6,4.1 C 18,18.5 13,25.9 7,32.9 c -3.1,3.6 -3.4,4.6 -1.6,4.8 1.3,0.2 3.9,-1.6 7.1,-4.8 1.4,-1.4 2.6,-2.5 2.7,-2.4 1.4,1.4 1.1,12.3 -0.5,20.2 -0.7,3 -0.7,3.8 -0.4,5.2 1.4,5.7 4.3,6.9 5.8,2.5 0.6,-1.6 0.7,-3.6 0.9,-13.8 0.2,-6.5 0.4,-12.3 0.5,-12.8 0.3,-1.1 -0.5,-2.7 -2.1,-4.1 -0.4,-0.5 -0.9,-1 -0.9,-1.1 0,-0.2 0.7,-1 1.4,-1.9 0.8,-0.9 2.6,-3.2 4,-5.2 1.4,-2 3.1,-4.2 3.8,-5.1 1.9,-2 1.8,-3.1 -0.3,-5.1 -0.9,-0.9 -2.1,-1.8 -2.7,-2.1 -1.5,-0.7 -3.5,-0.7 -4,0 m 32.7,18.5 c 0.7,1.5 0.3,1.8 -3.4,2.2 -2,0.2 -3.7,0.3 -3.9,0.2 -0.1,-0.1 -0.3,-0.8 -0.3,-1.5 0,-1.3 0.1,-1.4 1.5,-1.6 4.3,-0.5 5.7,-0.4 6.1,0.7 m -12.8,1.9 c 0,2 0.2,1.9 -4.2,2.5 -1.4,0.1 -2.7,0.2 -2.9,0 -0.1,-0.1 -0.3,-0.8 -0.4,-1.5 -0.2,-1.1 -0.2,-1.3 0.6,-1.5 1,-0.2 5.8,-1.1 6.5,-1.2 0.3,0 0.4,0.6 0.4,1.7 m 12.1,5.7 c -0.1,0.8 -0.3,1.5 -0.3,1.6 -0.1,0 -5.5,0.2 -6.1,0.1 -0.3,0 -0.5,-0.4 -0.4,-1.3 l 0.1,-1.3 2.6,-0.2 c 1.5,-0.1 3,-0.3 3.5,-0.3 0.8,0 0.8,0 0.6,1.4 m -12.2,1.3 -0.1,1.6 -2.7,0.1 c -1.6,0.1 -2.9,0 -3.1,-0.1 C 34.5,36 34.3,35.5 34.2,35 34,34.1 34,34 36.5,33.5 c 4.2,-0.9 4.2,-0.9 4,1.1"
     id="path1187" />
  <metadata
     id="metadata13336">
    <rdf:RDF>
      <cc:Work
         rdf:about="">
        <dc:title>俥</dc:title>
      </cc:Work>
    </rdf:RDF>
  </metadata>
</svg>

<?xml version="1.0" encoding="UTF-8"?>
<svg width="100" height="100"
	xmlns="http://www.w3.org/2000/svg">
	<title>俥</title>
	<!-- 此字型為全字庫正楷體，中華民國國家發展委員會，CNS11643中文標準交換碼全字庫網站，https://www.cns11643.gov.tw/。 -->
	<circle r="48.5" cx="50" cy="50" stroke-width="3" stroke="#000" fill="#fda"/>
	<circle r="43.5" cx="50" cy="50" stroke-width="3" stroke="#c00" fill="none"/>
	<path transform="translate(15,14)" fill="#c00" d="M39.1 3.7 C37.9 4.4,37.9 5.5,39.0 6.6 C40.3 7.8,40.6 9.1,40.5 11.9 L40.4 14.5 39.2 14.8 C38.5 14.9,36.0 15.1,33.7 15.3 C28.9 15.5,28.2 15.8,29.2 17.4 C30.2 18.8,32.3 19.6,35.3 19.6 C36.8 19.6,38.6 19.4,39.3 19.3 L40.6 19.0 40.6 20.7 C40.6 22.2,40.5 22.4,39.6 22.5 C37.0 23.1,33.4 23.4,30.2 23.4 C25.5 23.5,25.4 23.6,27.3 28.2 C28.0 30.1,28.9 32.9,29.2 34.3 C29.6 35.7,30.0 37.5,30.2 38.3 C30.8 40.7,33.4 42.6,34.2 41.2 C34.5 40.7,37.8 39.9,39.6 39.9 C40.6 39.9,40.6 39.9,40.6 42.1 L40.6 44.4 39.5 44.6 C38.8 44.7,35.0 45.0,31.0 45.4 C26.8 45.7,23.5 46.2,23.2 46.4 C22.6 46.8,22.6 46.9,23.2 47.8 C23.9 49.0,26.3 50.4,27.8 50.4 C28.4 50.4,30.2 50.2,31.8 49.9 C33.5 49.6,36.1 49.2,37.7 49.1 L40.5 48.9 40.6 54.9 C40.6 58.2,40.8 61.6,41.0 62.6 C41.6 65.4,43.1 66.3,44.4 64.6 C45.3 63.5,45.5 61.5,45.8 54.3 L46.0 48.5 55.9 48.5 C64.3 48.5,65.9 48.4,66.2 47.9 C67.1 46.4,66.0 44.9,62.5 43.1 L60.7 42.2 54.8 42.8 C51.5 43.1,48.1 43.4,47.3 43.4 L45.8 43.4 45.9 41.4 L46.0 39.4 49.0 39.3 C51.8 39.2,52.1 39.2,52.8 40.1 C54.0 41.3,55.7 41.3,56.6 40.0 C57.5 38.8,57.8 37.6,58.9 32.7 C59.4 29.9,59.9 28.5,60.7 27.3 C61.3 26.4,61.9 25.4,62.1 25.0 C62.4 24.2,60.2 22.2,57.5 20.9 L55.3 19.9 52.9 20.5 C51.6 20.8,49.5 21.1,48.3 21.1 L46.0 21.2 45.9 19.9 C45.8 18.3,46.1 18.1,50.6 17.5 C52.3 17.3,54.5 17.0,55.4 16.8 C58.4 16.1,59.0 14.1,56.6 12.8 C54.6 11.8,52.4 11.7,49.3 12.5 C47.9 12.9,46.6 13.1,46.4 13.0 C46.1 12.8,46.5 10.4,47.1 8.9 C47.4 8.2,47.6 7.5,47.6 7.2 C47.6 6.4,45.6 4.8,43.5 4.0 C41.1 3.0,40.4 3.0,39.1 3.7 M20.7 7.2 C20.3 7.6,20.3 8.0,20.7 9.4 C21.1 11.1,21.1 11.3,20.1 13.5 C18.0 18.5,13.0 25.9,7.0 32.9 C3.9 36.5,3.6 37.5,5.4 37.7 C6.7 37.9,9.3 36.1,12.5 32.9 C13.9 31.5,15.1 30.4,15.2 30.5 C16.6 31.9,16.3 42.8,14.7 50.7 C14.0 53.7,14.0 54.5,14.3 55.9 C15.7 61.6,18.6 62.8,20.1 58.4 C20.7 56.8,20.8 54.8,21.0 44.6 C21.2 38.1,21.4 32.3,21.5 31.8 C21.8 30.7,21.0 29.1,19.4 27.7 C19.0 27.2,18.5 26.7,18.5 26.6 C18.5 26.4,19.2 25.6,19.9 24.7 C20.7 23.8,22.5 21.5,23.9 19.5 C25.3 17.5,27.0 15.3,27.7 14.4 C29.6 12.4,29.5 11.3,27.4 9.3 C26.5 8.4,25.3 7.5,24.7 7.2 C23.2 6.5,21.2 6.5,20.7 7.2 M53.4 25.7 C54.1 27.2,53.7 27.5,50.0 27.9 C48.0 28.1,46.3 28.2,46.1 28.1 C46.0 28.0,45.8 27.3,45.8 26.6 C45.8 25.3,45.9 25.2,47.3 25.0 C51.6 24.5,53.0 24.6,53.4 25.7 M40.6 27.6 C40.6 29.6,40.8 29.5,36.4 30.1 C35.0 30.2,33.7 30.3,33.5 30.1 C33.4 30.0,33.2 29.3,33.1 28.6 C32.9 27.5,32.9 27.3,33.7 27.1 C34.7 26.9,39.5 26.0,40.2 25.9 C40.5 25.9,40.6 26.5,40.6 27.6 M52.7 33.3 C52.6 34.1,52.4 34.8,52.4 34.9 C52.3 34.9,46.9 35.1,46.3 35.0 C46.0 35.0,45.8 34.6,45.9 33.7 L46.0 32.4 48.6 32.2 C50.1 32.1,51.6 31.9,52.1 31.9 C52.9 31.9,52.9 31.9,52.7 33.3 M40.5 34.6 L40.4 36.2 37.7 36.3 C36.1 36.4,34.8 36.3,34.6 36.2 C34.5 36.0,34.3 35.5,34.2 35.0 C34.0 34.1,34.0 34.0,36.5 33.5 C40.7 32.6,40.7 32.6,40.5 34.6 "/>
</svg>
